X: 2127
T: SUCKY BIDS ME
C:
Q: "Reel."
R: Reel.
%R: reel
B: James Kerr "Merry Melodies" v.2 p.15 #127
Z: 2016 John Chambers <jc:trillian.mit.edu>
M: C
L: 1/8
K: G
|:\
G2(DE) G2e2 | dBGB AFED |\
G2(DE) G2e2 | dBcA G2G2 :|\
d2(Bc) d2g2 | fafd ege^c |
d2(B=c) d2g2 | fge^c d3e |\
dgfe dcBG | B2(BG) AFED |\
G2(DE) G2e2 | dBcA G3z |]

%%sep 1 1 500
%%sep 1 1 500

